X: 9334
T: Dancing At Lughnasa
R: reel
M: 4/4
K: Gmajor
|e3 A f3 A|gfed ^cA A/A/A|dAeA fAgA|abge fd d2|
e3 A f/f/f fA|gfed ^cA A/A/A|FAde fgab|agec d2 fd|
e3 A f3 fA|gfed ^cA A/A/A|dAeA fAgA|abge fddd|
edeA fefA|gfed ^cA AA|FAde fgab|agec d2 z2|

